X: 15378
T: Glasgow, The
R: hornpipe
M: 4/4
K: Gmajor
|:BA|GDB,DG2GB|AGAB cccA|Ggg/f/g edcB|c2A2 A2BA|
GDB,D G2G/A/B|AGAB cccA|Ggfe dcBA|B2G2 G2:|
|:Bc|dgg/f/g edcB|ccce dcBA|Ggg/f/g edcB|c2A2 A2Bc|
dBB/A/B ecc/B/c|fdef ggge|dgfe dcBA|B2G2 G2:|

